{ "compressionlevel":-1,
 "height":16,
 "infinite":false,
 "layers":[
        {
         "data":[72, 71, 71, 71, 71, 71, 71, 72, 71, 71, 71, 72, 72, 72, 71, 72,
            71, 72, 72, 71, 71, 71, 72, 72, 72, 72, 71, 71, 71, 71, 72, 72,
            71, 72, 71, 72, 72, 71, 71, 71, 71, 71, 71, 71, 71, 71, 72, 71,
            72, 71, 72, 71, 71, 72, 71, 71, 71, 72, 71, 71, 72, 71, 71, 71,
            72, 72, 71, 71, 71, 72, 72, 71, 72, 72, 71, 71, 72, 71, 71, 71,
            72, 71, 72, 71, 72, 72, 72, 72, 71, 71, 72, 72, 71, 71, 72, 72,
            72, 72, 71, 71, 72, 71, 71, 71, 71, 72, 72, 71, 71, 71, 71, 72,
            71, 72, 71, 72, 71, 71, 72, 0, 0, 0, 72, 72, 71, 71, 72, 71,
            72, 72, 72, 72, 0, 0, 0, 0, 0, 0, 0, 0, 72, 72, 71, 72,
            72, 71, 71, 71, 0, 0, 0, 71, 72, 0, 0, 72, 72, 71, 72, 71,
            72, 72, 72, 71, 71, 72, 71, 71, 71, 0, 0, 72, 71, 71, 72, 72,
            71, 72, 71, 71, 72, 72, 0, 71, 71, 71, 71, 71, 71, 72, 72, 71,
            71, 71, 72, 71, 72, 71, 72, 0, 72, 71, 71, 71, 72, 72, 72, 72,
            71, 72, 72, 72, 72, 71, 71, 71, 72, 72, 71, 71, 71, 71, 71, 71,
            72, 71, 72, 71, 72, 72, 72, 71, 72, 72, 72, 71, 72, 71, 71, 72,
            71, 71, 72, 71, 72, 72, 72, 72, 71, 72, 71, 71, 71, 72, 71, 72],
         "height":16,
         "id":2,
         "name":"sea",
         "opacity":1,
         "type":"tilelayer",
         "visible":true,
         "width":16,
         "x":0,
         "y":0
        }, 
        {
         "data":[0, 0, 0, 0, 0, 0, 0, 0, 0, 0, 0, 0, 0, 0, 0, 0,
            0, 0, 0, 0, 0, 0, 0, 0, 0, 0, 0, 0, 0, 0, 0, 0,
            0, 0, 0, 0, 0, 0, 0, 0, 0, 0, 0, 0, 0, 0, 0, 0,
            0, 0, 0, 0, 0, 0, 0, 0, 0, 0, 0, 0, 0, 0, 0, 0,
            0, 0, 0, 0, 0, 0, 0, 1, 2, 3, 0, 0, 0, 0, 0, 0,
            0, 0, 0, 0, 0, 0, 1, 16, 16, 16, 3, 0, 0, 0, 0, 0,
            0, 0, 0, 0, 0, 1, 16, 16, 16, 16, 16, 3, 0, 0, 0, 0,
            0, 0, 0, 0, 1, 16, 16, 16, 16, 16, 16, 17, 0, 0, 0, 0,
            0, 0, 0, 0, 15, 16, 16, 16, 16, 16, 16, 31, 0, 0, 0, 0,
            0, 0, 0, 0, 29, 16, 16, 16, 16, 16, 17, 45, 0, 0, 0, 0,
            0, 0, 0, 0, 43, 29, 16, 16, 16, 16, 31, 0, 0, 0, 0, 0,
            0, 0, 0, 0, 0, 43, 29, 16, 16, 31, 45, 0, 0, 0, 0, 0,
            0, 0, 0, 0, 0, 0, 43, 44, 44, 45, 0, 0, 0, 0, 0, 0,
            0, 0, 0, 0, 0, 0, 0, 0, 0, 0, 0, 0, 0, 0, 0, 0,
            0, 0, 0, 0, 0, 0, 0, 0, 0, 0, 0, 0, 0, 0, 0, 0,
            0, 0, 0, 0, 0, 0, 0, 0, 0, 0, 0, 0, 0, 0, 0, 0],
         "height":16,
         "id":1,
         "name":"ground",
         "opacity":1,
         "type":"tilelayer",
         "visible":true,
         "width":16,
         "x":0,
         "y":0
        }, 
        {
         "draworder":"topdown",
         "id":4,
         "name":"spawners",
         "objects":[
                {
                 "height":0,
                 "id":1,
                 "name":"PlayerSpawner",
                 "opacity":1,
                 "point":true,
                 "properties":[
                        {
                         "name":"type",
                         "type":"string",
                         "value":"spawn_player"
                        }],
                 "rotation":0,
                 "type":"",
                 "visible":true,
                 "width":0,
                 "x":128,
                 "y":128
                }],
         "opacity":1,
         "type":"objectgroup",
         "visible":true,
         "x":0,
         "y":0
        }],
 "nextlayerid":5,
 "nextobjectid":2,
 "orientation":"orthogonal",
 "renderorder":"right-down",
 "tiledversion":"1.12.2",
 "tileheight":16,
 "tilesets":[
        {
         "firstgid":1,
         "source":"..\/..\/..\/..\/..\/tile_set_pingu.tsx"
        }],
 "tilewidth":16,
 "type":"map",
 "version":"1.10",
 "width":16
}