<?xml version="1.0" encoding="UTF-8"?>
<map version="1.10" tiledversion="1.12.2" orientation="orthogonal" renderorder="right-down" width="10" height="10" tilewidth="16" tileheight="16" infinite="0" nextlayerid="6" nextobjectid="48">
 <editorsettings>
  <export target="teste_ysort.tmj" format="json"/>
 </editorsettings>
 <tileset firstgid="1" source="images/tile_set_pingu.tsx"/>
 <tileset firstgid="141" source="images/fence.tsx"/>
 <tileset firstgid="147" source="images/arvore.tsx"/>
 <tileset firstgid="149" source="images/portao.tsx"/>
 <tileset firstgid="151" source="images/star.tsx"/>
 <layer id="1" name="sea" width="10" height="10" locked="1">
  <data encoding="csv">
71,72,72,71,71,72,72,72,72,72,
71,72,72,71,72,71,71,72,71,72,
71,72,72,71,72,72,71,72,71,72,
72,71,71,71,72,72,72,71,72,72,
72,71,71,72,71,71,71,72,71,71,
72,71,72,72,71,72,72,72,71,72,
72,71,72,72,72,72,71,71,72,72,
71,72,71,71,71,71,72,72,71,72,
72,72,72,71,71,72,71,71,71,72,
71,72,72,72,71,72,72,71,71,71
</data>
 </layer>
 <layer id="2" name="ground" width="10" height="10" locked="1">
  <data encoding="csv">
0,0,0,0,0,0,0,0,0,0,
0,0,0,1,2,2,3,0,0,0,
0,0,1,16,16,16,16,2,3,0,
0,0,15,16,16,16,16,16,17,0,
0,0,15,16,16,16,16,16,17,0,
0,1,16,16,16,16,16,16,17,0,
0,29,16,16,16,16,16,16,31,0,
0,43,29,16,16,16,16,31,45,0,
0,0,43,29,30,30,31,45,0,0,
0,0,0,43,44,44,45,0,0,0
</data>
 </layer>
 <objectgroup id="4" name="objetos">
  <object id="42" x="78.7273" y="101.818">
   <properties>
    <property name="isActive" type="bool" value="true"/>
    <property name="isTransparent" type="bool" value="false"/>
    <property name="type" value="colision"/>
   </properties>
   <polygon points="0,0 32,0 32,-16 0,-16"/>
  </object>
  <object id="43" gid="149" x="80" y="64" width="64" height="48"/>
  <object id="45" x="32" y="64">
   <properties>
    <property name="acao" value="trocar_mapa"/>
    <property name="colisao" type="bool" value="true"/>
    <property name="destino" value="CASA_VENDEDOR.tmj"/>
    <property name="isActive" type="bool" value="true"/>
    <property name="isInteractive" type="bool" value="true"/>
    <property name="isTransparent" type="bool" value="false"/>
    <property name="type" value="map_object"/>
   </properties>
   <polygon points="0,0 0,16 0,32 0,48 16,48 32,32"/>
  </object>
  <object id="46" gid="152" x="64" y="128" width="16" height="32"/>
  <object id="47" gid="152" x="112" y="96" width="16" height="32"/>
 </objectgroup>
 <objectgroup id="5" name="spawners">
  <object id="5" name="PlayerSpawner" x="64" y="64">
   <properties>
    <property name="type" value="spawn_player"/>
   </properties>
   <point/>
  </object>
 </objectgroup>
</map>
