<?xml version="1.0" encoding="UTF-8"?>
<map version="1.10" tiledversion="1.12.2" orientation="orthogonal" renderorder="right-down" width="16" height="16" tilewidth="16" tileheight="16" infinite="0" nextlayerid="5" nextobjectid="2">
 <editorsettings>
  <export target="Code Projects/Unesp/jogo-poo/pingu-007/Pingu-007/LEVEL_2_DATA.tmj" format="json"/>
 </editorsettings>
 <tileset firstgid="1" source="tile_set_pingu.tsx"/>
 <layer id="2" name="sea" width="16" height="16">
  <data encoding="csv">
72,71,71,71,71,71,71,72,71,71,71,72,72,72,71,72,
71,72,72,71,71,71,72,72,72,72,71,71,71,71,72,72,
71,72,71,72,72,71,71,71,71,71,71,71,71,71,72,71,
72,71,72,71,71,72,71,71,71,72,71,71,72,71,71,71,
72,72,71,71,71,72,72,71,72,72,71,71,72,71,71,71,
72,71,72,71,72,72,72,72,71,71,72,72,71,71,72,72,
72,72,71,71,72,71,71,71,71,72,72,71,71,71,71,72,
71,72,71,72,71,71,72,0,0,0,72,72,71,71,72,71,
72,72,72,72,0,0,0,0,0,0,0,0,72,72,71,72,
72,71,71,71,0,0,0,71,72,0,0,72,72,71,72,71,
72,72,72,71,71,72,71,71,71,0,0,72,71,71,72,72,
71,72,71,71,72,72,0,71,71,71,71,71,71,72,72,71,
71,71,72,71,72,71,72,0,72,71,71,71,72,72,72,72,
71,72,72,72,72,71,71,71,72,72,71,71,71,71,71,71,
72,71,72,71,72,72,72,71,72,72,72,71,72,71,71,72,
71,71,72,71,72,72,72,72,71,72,71,71,71,72,71,72
</data>
 </layer>
 <layer id="1" name="ground" width="16" height="16">
  <data encoding="csv">
0,0,0,0,0,0,0,0,0,0,0,0,0,0,0,0,
0,0,0,0,0,0,0,0,0,0,0,0,0,0,0,0,
0,0,0,0,0,0,0,0,0,0,0,0,0,0,0,0,
0,0,0,0,0,0,0,0,0,0,0,0,0,0,0,0,
0,0,0,0,0,0,0,1,2,3,0,0,0,0,0,0,
0,0,0,0,0,0,1,16,16,16,3,0,0,0,0,0,
0,0,0,0,0,1,16,16,16,16,16,3,0,0,0,0,
0,0,0,0,1,16,16,16,16,16,16,17,0,0,0,0,
0,0,0,0,15,16,16,16,16,16,16,31,0,0,0,0,
0,0,0,0,29,16,16,16,16,16,17,45,0,0,0,0,
0,0,0,0,43,29,16,16,16,16,31,0,0,0,0,0,
0,0,0,0,0,43,29,16,16,31,45,0,0,0,0,0,
0,0,0,0,0,0,43,44,44,45,0,0,0,0,0,0,
0,0,0,0,0,0,0,0,0,0,0,0,0,0,0,0,
0,0,0,0,0,0,0,0,0,0,0,0,0,0,0,0,
0,0,0,0,0,0,0,0,0,0,0,0,0,0,0,0
</data>
 </layer>
 <objectgroup id="4" name="spawners">
  <object id="1" name="PlayerSpawner" x="128" y="128">
   <properties>
    <property name="type" value="spawn_player"/>
   </properties>
   <point/>
  </object>
 </objectgroup>
</map>
